src/Icon/svgs/EyeOff.svg

<svg width="24" height="24" viewBox="0 0 24 24" fill="none" xmlns="http://www.w3.org/2000/svg">
<path fill-rule="evenodd" clip-rule="evenodd" d="M4.22422 2.80762L2.81 4.22183L5.32063 6.73246C4.14156 7.85863 3.1026 9.3227 2.21115 11.1056C1.92965 11.6686 1.92962 12.3313 2.21105 12.8943C4.52401 17.5214 7.83009 20.0016 12 20.0016C13.8816 20.0016 15.5874 19.4966 17.1053 18.5172L19.7806 21.1924L21.1948 19.7782L4.22422 2.80762ZM15.6478 17.0596L14.0335 15.4453C13.4376 15.7978 12.7424 16 12 16C10.204 16 8.64294 14.8063 8.15476 13.1047C8.05243 12.748 8 12.377 8 12C8 11.2576 8.20227 10.5624 8.55472 9.96655L6.7345 8.14633C5.71531 9.10784 4.80381 10.3924 4 12C6 16.0011 8.66667 18.0016 12 18.0016C13.3206 18.0016 14.5365 17.6876 15.6478 17.0596ZM10.0683 11.4801C10.0237 11.6459 10 11.8202 10 12C10 12.19 10.0262 12.3754 10.0772 12.5532C10.3209 13.4027 11.1021 14 12 14C12.1798 14 12.3541 13.9763 12.5199 13.9318L10.0683 11.4801Z" fill="#1B1C1D"/>
<path d="M20 12C19.5613 12.8777 19.0904 13.6592 18.5875 14.3444L20.0146 15.7715C20.6587 14.9314 21.2507 13.971 21.7889 12.8943C22.0704 12.3313 22.0703 11.6686 21.7889 11.1056C19.4758 6.4796 16.1698 4.00003 12 4.00003C10.8645 4.00003 9.79295 4.18392 8.78812 4.54498L10.4062 6.16302C10.9193 6.05436 11.4506 6.00003 12 6.00003C15.3333 6.00003 18 8.00003 20 12Z" fill="#1B1C1D"/>
</svg>

<svg xmlns="http://www.w3.org/2000/svg" width="24" height="24" fill="#1b1c1d"  xmlns:v="https://vecta.io/nano"><path fill-rule="evenodd" d="M4.224 2.808L2.81 4.222l2.511 2.511c-1.179 1.126-2.218 2.59-3.109 4.373a2 2 0 0 0 0 1.789C4.524 17.521 7.83 20.002 12 20.002c1.882 0 3.587-.505 5.105-1.484l2.675 2.675 1.414-1.414L4.224 2.808zM15.648 17.06l-1.614-1.614A3.98 3.98 0 0 1 12 16a4 4 0 0 1-4-4 3.98 3.98 0 0 1 .555-2.033l-1.82-1.82C5.715 9.108 4.804 10.392 4 12c2 4.001 4.667 6.002 8 6.002 1.321 0 2.537-.314 3.648-.942zm-5.579-5.579a2 2 0 0 0 .009 1.073A2 2 0 0 0 12 14c.18 0 .354-.024.52-.068l-2.452-2.452z"/><path d="M20 12c-.439.878-.91 1.659-1.413 2.344l1.427 1.427c.644-.84 1.236-1.8 1.774-2.877a2 2 0 0 0 0-1.789C19.476 6.48 16.17 4 12 4c-1.136 0-2.207.184-3.212.545l1.618 1.618C10.919 6.054 11.451 6 12 6c3.333 0 6 2 8 6z"/></svg>
